public/build/img/sistema/panelcategorias-ng.svg

<svg width="35" height="35" viewBox="0 0 35 35" fill="none" xmlns="http://www.w3.org/2000/svg">
<path d="M35 3.83246V15.7938C35 17.154 34.4639 18.4581 33.5038 19.4182L19.4222 33.4998C17.422 35.5001 14.1816 35.5001 12.1814 33.4998L1.50017 22.8186C-0.500057 20.8184 -0.500057 17.578 1.50017 15.5778L15.5818 1.4962C16.5419 0.536089 17.846 2.77974e-05 19.2062 2.77974e-05H31.1596C33.2798 -0.00797311 35 1.71222 35 3.83246ZM26.039 11.5133C27.4551 11.5133 28.5993 10.3692 28.5993 8.95304C28.5993 7.53688 27.4551 6.39275 26.039 6.39275C24.6228 6.39275 23.4787 7.53688 23.4787 8.95304C23.4787 10.3692 24.6228 11.5133 26.039 11.5133Z" fill="black"/>
</svg>

<svg width="35" height="35" fill="none" xmlns="http://www.w3.org/2000/svg"><path d="M35 3.832v11.962c0 1.36-.536 2.664-1.496 3.624L19.422 33.5c-2 2-5.24 2-7.24 0L1.5 22.819c-2-2-2-5.241 0-7.241L15.582 1.496A5.122 5.122 0 0119.206 0H31.16A3.83 3.83 0 0135 3.832zm-8.961 7.681a2.558 2.558 0 002.56-2.56 2.558 2.558 0 00-2.56-2.56 2.558 2.558 0 00-2.56 2.56 2.557 2.557 0 002.56 2.56z" fill="#000"/></svg>
